X:258
T:Primrose Lass (reel), The 
B:CRE2.189 (Gearrchaile na SamhaircÃÂÃÂÃÂÃÂ­nÃÂÃÂÃÂÃÂ­)
F:file ID: cre.2/258prim_L
R:reel
M:C
Q:180
K:G
B2BA GAGE|DEGA BAA2|(3BcB AB GAGE|DEGA BGG2|
B2BA GAGE|DEGA BAA2|(3cBA G2 AEE2|DEGA BAG2:|
Bdgd edgd|(3Bcd gd eAA2|(3Bcd gd edge|dBAc BGG2|
Bdgd edgd|(3Bcd gd eAA2|Bdef g2ge|dBAc BGG2:|

%%%

